X: 2
T: Old Grey Cat
R: reel
S: Fiddle Hell Online 2021-10-29
Z: 2022 John Chambers <jc:trillian.mit.edu>
M: 2/4
L: 1/16
K: Em
|:\
"Em"B2B2 E3F | GFGA BABc | "D"d2d2 D3E | FAdB AFED |
"Em"B2B2 E3F | GFGA BABc | "D"dcBA BAGF | "Em"E4 E3A :|
|:\
"Em"B2e2 e3d | Bdef gfed | "D"A2d2 d3B | ABde fedf |
"Em"e2B2 "G"g2B2 | "A"a2B2 "B"b3a | "Em"gfed "D"BABd | "Em"e4 e4 :|


